X: 22219
T: La Contredanse
R: reel
M: 4/4
K: Gmajor
DD|GBAG BGDG|BBAF G2DD|GBAG BGDG|BBAF G2DD|
GBAG BGDD|GBAG BGAB|[M:6/4]c2 cB AFAF DFAF|
M:4/4
DEFG ABc2|1 BcAF G2:|2 BcAF GABc||
M:6/4
d3d BGBd g3g|[M:4/4]e^cec A2AB|[M:6/4]c2>c2 Bced cBAc|[M:4/4]BdBG GABc|
M:6/4
d3d BGBd g3g|[M:4/4]e^cec A2AB|[M:6/4]c2cB cAdc|1 [M:4/4]BdBG GABc:|2 [M:4/4]BdBG G4||

